X:6582
T:the Brigham Hornpipe
O:england
M:4/4
A:North-West
R:Hornpipe
K:F
(3cde|\
fdfc abag| fefd cfcA| BABG dBGF| (3EFG (3FED C2(3cde|\
fefc abag| fefd cfcA| BGdB AGFE| G2F2 F2::\
EF|\
G^FGA BGdB| Acfc afcA| Bbca BgAf| (3efg (3fed (3cdc (3BAG|\
FAcA fcaf| Bdge bgec| fcdB AGFE| G2F2 F2:|


